public/assets/imgs/icons/quote.svg

<svg width="48" height="42" viewBox="0 0 48 42" fill="none" xmlns="http://www.w3.org/2000/svg">
<path d="M16.6153 19.154H10.1537C9.38437 19.154 8.73037 18.8849 8.19185 18.3463C7.65363 17.8078 7.38417 17.154 7.38417 16.3845V15.4619C7.38417 13.4233 8.10546 11.6831 9.54795 10.2406C10.9903 8.79859 12.7309 8.0773 14.7693 8.0773H16.6153C17.1152 8.0773 17.5477 7.89453 17.9133 7.52929C18.2786 7.16384 18.4613 6.73131 18.4613 6.23128V2.53864C18.4613 2.03872 18.2785 1.60578 17.9133 1.24034C17.5478 0.875398 17.1153 0.692322 16.6153 0.692322H14.7693C12.7691 0.692322 10.8608 1.08212 9.04327 1.86059C7.22595 2.63958 5.65404 3.69257 4.32694 5.01967C2.99994 6.34616 1.94726 7.91817 1.16837 9.7357C0.389491 11.553 0 13.4618 0 15.4618V35.769C0 37.3083 0.538216 38.6152 1.61515 39.6926C2.69219 40.7693 4.00019 41.3076 5.53856 41.3076H16.616C18.1542 41.3076 19.4618 40.7693 20.539 39.6926C21.6157 38.6152 22.1542 37.3083 22.1542 35.769V24.6926C22.1542 23.1536 21.6157 21.8466 20.5383 20.7692C19.4616 19.6925 18.1535 19.154 16.6153 19.154Z" fill="#3B82F6"/>
<path d="M46.3856 20.7692C45.309 19.6925 44.0013 19.154 42.4626 19.154H36.0011C35.2322 19.154 34.5776 18.8849 34.04 18.3463C33.5012 17.8078 33.2323 17.154 33.2323 16.3845V15.4619C33.2323 13.4233 33.9536 11.6831 35.3954 10.2406C36.8372 8.79859 38.5777 8.0773 40.6171 8.0773H42.4627C42.9627 8.0773 43.3955 7.89453 43.7608 7.52929C44.1258 7.16384 44.3092 6.73131 44.3092 6.23128V2.53864C44.3092 2.03872 44.1259 1.60578 43.7608 1.24034C43.3956 0.875398 42.9628 0.692322 42.4627 0.692322H40.6171C38.6158 0.692322 36.7079 1.08212 34.8899 1.86059C33.0729 2.63958 31.5015 3.69257 30.1744 5.01967C28.8473 6.34616 27.7941 7.91817 27.0155 9.7357C26.2368 11.553 25.8468 13.4618 25.8468 15.4618V35.769C25.8468 37.3083 26.3855 38.6152 27.4622 39.6926C28.5389 40.7693 29.8466 41.3076 31.3852 41.3076H42.462C44.0006 41.3076 45.3082 40.7693 46.3849 39.6926C47.4623 38.6152 47.9999 37.3083 47.9999 35.769V24.6926C48 23.1535 47.4623 21.8466 46.3856 20.7692Z" fill="#3B82F6"/>
</svg>

<?xml version="1.0" encoding="utf-8"?>
<!-- Generator: Adobe Illustrator 28.0.0, SVG Export Plug-In . SVG Version: 6.00 Build 0)  -->
<svg version="1.1" id="Capa_1" xmlns="http://www.w3.org/2000/svg" xmlns:xlink="http://www.w3.org/1999/xlink" x="0px" y="0px"
	 viewBox="0 0 48 42" style="enable-background:new 0 0 48 42;" xml:space="preserve">
<style type="text/css">
	.st0{fill:#B6B6B7;}
</style>
<path class="st0" d="M16.6,19.2h-6.5c-0.8,0-1.4-0.3-2-0.8c-0.5-0.5-0.8-1.2-0.8-2v-0.9c0-2,0.7-3.8,2.2-5.2
	c1.4-1.4,3.2-2.2,5.2-2.2h1.8c0.5,0,0.9-0.2,1.3-0.5c0.4-0.4,0.5-0.8,0.5-1.3V2.5c0-0.5-0.2-0.9-0.5-1.3c-0.4-0.4-0.8-0.5-1.3-0.5
	h-1.8c-2,0-3.9,0.4-5.7,1.2C7.2,2.6,5.7,3.7,4.3,5C3,6.3,1.9,7.9,1.2,9.7C0.4,11.6,0,13.5,0,15.5v20.3c0,1.5,0.5,2.8,1.6,3.9
	c1.1,1.1,2.4,1.6,3.9,1.6h11.1c1.5,0,2.8-0.5,3.9-1.6c1.1-1.1,1.6-2.4,1.6-3.9V24.7c0-1.5-0.5-2.8-1.6-3.9
	C19.5,19.7,18.2,19.2,16.6,19.2z"/>
<path class="st0" d="M46.4,20.8c-1.1-1.1-2.4-1.6-3.9-1.6H36c-0.8,0-1.4-0.3-2-0.8c-0.5-0.5-0.8-1.2-0.8-2v-0.9c0-2,0.7-3.8,2.2-5.2
	c1.4-1.4,3.2-2.2,5.2-2.2h1.8c0.5,0,0.9-0.2,1.3-0.5c0.4-0.4,0.5-0.8,0.5-1.3V2.5c0-0.5-0.2-0.9-0.5-1.3c-0.4-0.4-0.8-0.5-1.3-0.5
	h-1.8c-2,0-3.9,0.4-5.7,1.2c-1.8,0.8-3.4,1.8-4.7,3.2c-1.3,1.3-2.4,2.9-3.2,4.7c-0.8,1.8-1.2,3.7-1.2,5.7v20.3
	c0,1.5,0.5,2.8,1.6,3.9c1.1,1.1,2.4,1.6,3.9,1.6h11.1c1.5,0,2.8-0.5,3.9-1.6c1.1-1.1,1.6-2.4,1.6-3.9V24.7
	C48,23.2,47.5,21.8,46.4,20.8z"/>
</svg>
